src/img/event_icons/users.svg

<svg fill="none" height="15" viewBox="0 0 18 15" width="18" xmlns="http://www.w3.org/2000/svg"><path d="m8.97266 9.5c1.58594 0 2.84374-1.25781 2.84374-2.84375 0-1.55859-1.2852-2.84375-2.84374-2.84375-1.5586 0-2.81641 1.28516-2.81641 2.84375-.02734 1.58594 1.25781 2.84375 2.81641 2.84375zm1.36714.875h-2.70699c-2.16015 0-3.88281 1.6406-3.88281 3.6641 0 .4101.32812.7109.76562.7109h8.94138c.4375 0 .793-.3008.793-.7109 0-2.0235-1.75-3.6641-3.9102-3.6641zm3.9102-5.25c1.2031 0 2.1875-.95703 2.1875-2.1875 0-1.20312-.9844-2.1875-2.1875-2.1875-1.2305 0-2.1875.98438-2.1875 2.1875 0 1.23047.957 2.1875 2.1875 2.1875zm-8.99609 1.53125c0-.13672.02734-.27344.05468-.41016-.30078-.16406-.6289-.24609-.98437-.24609h-1.66797c-1.33984 0-2.40625 1.14844-2.40625 2.57031 0 .27344.191406.49219.464844.49219h5.468746c-.57421-.62891-.92968-1.47656-.92968-2.40625zm-1.50391-1.53125c1.20312 0 2.1875-.95703 2.1875-2.1875 0-1.20312-.98438-2.1875-2.1875-2.1875-1.23047 0-2.1875.98438-2.1875 2.1875 0 1.23047.95703 2.1875 2.1875 2.1875zm11.5664.875h-1.668c-.3554 0-.6836.10938-.9843.24609 0 .13672.0273.27344.0273.41016 0 .92969-.3281 1.77734-.9023 2.40625h5.4687c.2734 0 .4922-.21875.4922-.49219 0-1.42187-1.0938-2.57031-2.4336-2.57031z" fill="#000"/></svg>

<svg width="18" height="15" viewBox="0 0 18 15" fill="none" xmlns="http://www.w3.org/2000/svg">
<path d="M8.97266 9.5C10.5586 9.5 11.8164 8.24219 11.8164 6.65625C11.8164 5.09766 10.5312 3.8125 8.97266 3.8125C7.41406 3.8125 6.15625 5.09766 6.15625 6.65625C6.12891 8.24219 7.41406 9.5 8.97266 9.5ZM10.3398 10.375H7.63281C5.47266 10.375 3.75 12.0156 3.75 14.0391C3.75 14.4492 4.07812 14.75 4.51562 14.75H13.457C13.8945 14.75 14.25 14.4492 14.25 14.0391C14.25 12.0156 12.5 10.375 10.3398 10.375ZM14.25 5.125C15.4531 5.125 16.4375 4.16797 16.4375 2.9375C16.4375 1.73438 15.4531 0.75 14.25 0.75C13.0195 0.75 12.0625 1.73438 12.0625 2.9375C12.0625 4.16797 13.0195 5.125 14.25 5.125ZM5.25391 6.65625C5.25391 6.51953 5.28125 6.38281 5.30859 6.24609C5.00781 6.08203 4.67969 6 4.32422 6H2.65625C1.31641 6 0.25 7.14844 0.25 8.57031C0.25 8.84375 0.441406 9.0625 0.714844 9.0625H6.18359C5.60938 8.43359 5.25391 7.58594 5.25391 6.65625ZM3.75 5.125C4.95312 5.125 5.9375 4.16797 5.9375 2.9375C5.9375 1.73438 4.95312 0.75 3.75 0.75C2.51953 0.75 1.5625 1.73438 1.5625 2.9375C1.5625 4.16797 2.51953 5.125 3.75 5.125ZM15.3164 6H13.6484C13.293 6 12.9648 6.10938 12.6641 6.24609C12.6641 6.38281 12.6914 6.51953 12.6914 6.65625C12.6914 7.58594 12.3633 8.43359 11.7891 9.0625H17.2578C17.5312 9.0625 17.75 8.84375 17.75 8.57031C17.75 7.14844 16.6562 6 15.3164 6Z" fill="black"/>
</svg>
